!!!OTL: 429. Neue Liebe, neues Leben.
!!!COM: C. F. Zelter
!!!ARE: Europa, Mitteleuropa, Deutschland
!!!SCT: B0429
!!!TXL: @@DE
!!!YEM: Copyright 1995, estate of Helmut Schaffrath.
**kern	**text
*ICvox	*
*Ivox	*
*clefG2	*
*M4/4	*
*met(c)	*
*k[]	*
*C:	*
!LO:TX:a:t=Etwas lebhaft.	!
{4g	Herʒ,
8r	.
8g	mein
=1	=1
4g	Herʒ,
8r	.
8g	was
4cc	ſoll
4e	das
=2	=2
8gL	ge-
8fJ	.
8f	-ben,
8r}	.
{4b-	was
4b-	be-
=3	=3
8aL	-dränget
8bJ	.
8ccL	.
8gJ	.
4g	dich
4f	ſo
=4	=4
4e	ſehr?
4r}	.
{4g	Welch
4g	ein
=5	=5
8gL	frem-
8f#J	.
4f#	-des
4cc	neu-
4cc	-es
=6	=6
8ccL	Le-
8bJ	.
8b	-ben?
8r}	.
{4dd	Jch
4dd	er-
=7	=7
8ddL	-ken-
8eJ	.
8cc\L	-ne
8aJ	.
4g	dich
8bL	nicht
8aJ	.
=8	=8
2g;}	mehr.
{4d	Weg
4d	iſt
=9	=9
4e-	al-
4e-	-les,
4e	was
4e	du
=10	=10
4f	lieb-
4f}	-teſt,
{4f#	weg,
4f#	wo-
=11	=11
4g	-rum
4g	du
4cc	dich
4cc	be-
=12	=12
[2.cc	-trüb-
16ccL]	.
16b	.
16a	.
16gJ	.
=13	=13
2g;}	-teſt,
=||	=||
{4cc	weg
8r	.
8g	dein
=14	=14
4.a	Fleiß
8a	und
8ddL	dei-
8ccJ	.
8bL	-ne
8aJ	.
=15	=15
4b	Ruh'!
4r}	.
{4cc	Ach,
4g	wie
=16	=16
8aL	kamſt
8ffJ	.
8eeL	du
8ddJ	.
4cc	nur
4b	da-
=17	=17
2cc}	-ʒu?
==	==
!!!AGN: Liebes - Lied, Liebes - Lust
!!!GTL: Liebeslieder - Liebeslust
!!!ONB: ESAC (Essen Associative Code) Database: BOEHME
!!!AMT: simple quadruple
!!!AIN: vox
!!!EED: Helmut Schaffrath
!!!EEV: 1.0
!!@@COMMENT:"Goethe 1775. Andere Melodien da zu giebt's von Reichardt 1809, Beethoven, op. 75 und Schumann."
!!@@END:
!!!Text: J. W. Goethe
!!!URL-scan: https://archive.org/details/BoehmeVtLieder1895/page/n351/mode/2up
!!!ENC: Anna Maria Matuszewska
!!!EEV: 2024/09/07
*-	*-
